X: 21051
T: YES, OR NO! -- Valse 1
C: By R. M. Taylor
B: K\"ohler's Violin Repository, v.2, 1885 p.105 #1
F: http://www.archive.org/details/klersviolinrepos02rugg
Z: 2012 John Chambers <jc:trillian.mit.edu>
N: Incorrect dot removed in bar 16.
M: 3/4
L: 1/8
K: D
[|!p!vF6 |\
(A4B2) | A6 | F6 | D6 | E6 | F6- | F6 | G6 | (c4B2) | A6 | F6 | G6 | ^D6 | E6- E6 |!ff! f6 |
(a4b2) | a6 | f6 | d6 | e6 | f6- | f6 | g6 | (c'4b2) | a6 | f6 | g6 | c6 | d6- | d2z2 |: ue2 |
fgfedc | d2z2ue2 | f6 | d2z2uf2 | gagfed | c2z2ud2 | e6 | A2z2ue2 | fgfedc |
d2z2ue2 | f6 | d2z2uf2 | gagfed | c2z2ue2 | (.d2z.d')d'2 |1 d'2z2 :|2 d'2z2"^D.C."z2 ||

%%sep 2 1 500

